!!!!SEGMENT: pl-wnifc--6020-n--006_kaminski-p--thema-z-opery-bednarz-z-waryacyami.krn
!!!cenid: 18xx:3911
!!!COM: Kamiński, P.
!!!COM-rismID: pe50044896
!!!CDT:
!!!CNT:
!!!OTL: Thema z Opery Bednarz z Waryacyami
!!!PDT:
!!!AGN:
!!!YEC: Copyright 2022 Narodowy Instytut Fryderyka Chopina (https://polishscores.org)
!!!YEM: License CC-BY-4.0 (https://creativecommons.org/licenses/by/4.0)
!!!SMS-siglum: PL-Wnifc
!!!SMS-shelfmark: 6020/n
!!!SMS-variant:
!!!SMS-altvar:
!!!SMS-shelfwork: 006 W
!!!NIFC-rismSourceID: 1001132996
!!!NIFC-rismChildID: 1001133003
!!!NIFC-islandoraID: nifc:212574
!!!URL-pdf-islandora: https://repozytorium.nifc.pl/islandora/object/nifc%3A212574/datastream/PDF/view
!!!URL-scan: https://polish.musicsources.pl/pl/lokalizacje/galeria/druki-muzyczne/16847 @EN{Scan on Polish Music Sources Website} @PL{Skany w portalu Dziedzictwo Muzyki Polskiej w otwartym dostępie}
!!!IIIF:
!!!ONB-nifc: UWAGA: s. 12-19
!!!AIN: 2 piano
!!!key: a
**kern	**kern	**dynam
*part2	*part1	*
*staff2	*staff1	*
*I"Thema	*I"Andante	*
*Ipiano	*Ipiano	*
*ICklav	*ICklav	*
*clefF4	*clefG2	*
*k[]	*k[]	*
*a:	*a:	*
*M2/2	*M2/2	*
*met(c|)	*met(c|)	*
!	!LO:TX:a:B:t=Andante	!
2r	4e/	.
!	!LO:TX:a:t=P:problem:przekreślony obiegnik	!
.	4esS/	.
=1	=1	=1
.	8qqc/	.
4A\	4a\	.
4AA/	4a\	.
!	!LO:TX:a:t=P:problem:przekreślony obiegnik	!
4A\	4.ccsS\	.
4G#X\ 4B	.	.
.	8ee\	.
=2	=2	=2
.	8qqdd/	.
4A\	4cc\	.
4AA/	4cc\	.
4E/	4e/	.
!	!LO:TX:a:t=P:problem:przekreślony obiegnik	!
4D/ 4E	4esS/	.
=3	=3	=3
*^	*^	*
4E/	4C\	4a/	2ryy	.
.	.	8qqcc/	.	.
4F/	4D\	4b/	.	.
4E\	2ryy	4.g#X/	2d\	.
4EE/	.	.	.	.
.	.	8b/	.	.
*v	*v	*	*	*
*	*v	*v	*
=4	=4	=4
2AA\ 2E	2c/ 2a	.
4E\ 4G	4cc\	.
!	!LO:TX:a:t=P:problem:przekreślony obiegnik	!
4C\ 4E 4G	4ccsS\	.
=5	=5	=5
*^	*	*
4G/	4F\	8.dd\L	.
.	.	16b\Jk	.
4G/	4E\	4cc\	.
4G/	4D\ 4F	4g/	.
!	!	!LO:TX:a:t=P:problem:przekreślony obiegnik	!
4G/	4C\ 4E	4ccsS\	.
=6	=6	=6	=6
4G\	4GG\ 4D	4g\ 4dd 4ff	.
4G\	4C\ 4E	4g\ 4cc 4ee	.
4F/	4FF/	4a/	.
.	.	8qqcc/	.
4G/	4D\ 4F	4b/	.
*v	*v	*	*
=7	=7	=7
4E/ 4G	4g/	.
4E/ 4G	4cc\	.
4D/ 4F 4G	4b\	.
!	!LO:TX:a:t=P:problem:przekreślony obiegnik	!
4C/ 4E 4G	4ccsS\	.
!!LO:LB:g=original
=	=	=
2GG;/ 2G	4cc;\ 4ee	.
.	4b\ 4dd	.
=8!|:	=8!|:	=8!|:
.	8qa/	.
4C\ 4E	8ee\L	.
.	8cc\	.
4D\ 4F	8b\	.
.	8a\J	.
=9	=9	=9
4EE/ 4E	8.g#X/L	.
.	16e/Jk	.
4FF#X/ 4F#X	8.a/L	.
.	16e/Jk	.
4GG#X/ 4G#X	8.b/L	.
.	16e/Jk	.
*	*Xtuplet	*
!	!LO:TUP:a:problem:klamra łukowa	!
4AA/ [4A	12cc\L	.
.	12ee\	.
.	12cc\J	.
=10	=10	=10
*^	*	*
4A/]	2E\	16dd\LL	.
.	.	16cc\	.
.	.	16b\	.
.	.	16cc\JJ	.
4G#X/	.	4b\	.
.	.	8qa/	.
4E\	4C\	8ee\L	.
.	.	8cc\	.
4F\	4D\	8b\	.
.	.	8a\J	.
*v	*v	*	*
=11	=11	=11
4EE/ 4E	8.g#X/L	.
.	16e/Jk	.
4C\ 4E	8.a/L	.
.	16e/Jk	.
4D\ 4F	4.b\	.
4E\ 4G#X	.	.
.	8qdd/	.
.	8cc\	.
=	=	=
2AA\ 2A	2c/ 2e 2a	.
!!LO:LB:g=original
=12:|!	=12:|!	=12:|!
*M2/2	*M2/2	*
*met(c|)	*met(c|)	*
!	!LO:TX:a:i:t=War&colon; 1	!
4r	(8e/L	.
.	8f#X/	.
4E\ 4d	8g#X/	.
.	8e/J)	.
=13	=13	=13
4A\ 4c	(8a/L	.
.	8e/	.
4AA/	8c/	.
.	8e/J)	.
4A\ 4c 4e	(8a\L	.
.	8cc\	.
4G#X\ 4B 4e	8b\	.
.	8ee\J)	.
=14	=14	=14
*^	*	*
4A\ 4e	2.ryy	8dd\L	.
.	.	8cc\	.
4AA/	.	8b\	.
.	.	8a\J	.
4E/	.	(8e/L	.
.	.	8f#X/	.
4E/	4D\	8g#X/	.
.	.	8e/J)	.
=15	=15	=15	=15
*	*	*^	*
*	*	*	*^	*
4E/	4C\	8a/L	2ryy	2.ryy	.
.	.	(8e/	.	.	.
4D/	2.ryy	8f/	.	.	.
.	.	8b/J	.	.	.
!	!	!LO:TX:t=P:problem:mixed beam	!	!	!
4E\	.	8g#X/L)	8ryy	.	.
.	.	8e/	(4.e\	.	.
4EE/	.	8ee\	.	8ryy	.
.	.	8g#/J	.	8d\)	.
*v	*v	*	*	*	*
*	*v	*v	*v	*
=16	=16	=16
2AA/ 2E	2c/ 2a	.
4E\ 4G	(8cc\L	.
.	8g\	.
4C\ 4E 4G	8cc\	.
.	8ee\J	.
=17	=17	=17
4F\ 4G	8dd\L)	.
.	(8b\	.
4E\ 4G	8cc\	.
.	8g\J	.
4D\ 4F 4G	8b/L	.
.	8g/	.
!LO:SIC:v:t=custos BB,D,G	!	!
4C\ 4E 4G	8cc/	.
!	!LO:SIC:v:t=custos dd,ff	!
.	8g/J)	.
!!LO:LB:g=original
=18	=18	=18
4BB\ 4D 4G	(8dd\L 8ff	.
.	8g\	.
4C\ 4E 4G	8cc\ 8ee	.
.	8g\J)	.
4FF\ 4F	8a\L	.
.	8cc\	.
4D\ 4F 4G	8b\	.
.	8dd\J	.
=19	=19	=19
4E\ 4G	(8cc\L	.
.	8g\	.
4C\ 4E 4G	8ee\	.
.	8cc\J)	.
4D\ 4F 4G	8b\L	.
.	8gg\	.
4C\ 4E 4G	8cc\	.
.	8gg\J	.
=	=	=
*	*^	*
2GG;\ 2G	(4ee;/	4cc\	.
.	8qqgg/L	.	.
.	8qqff#X/	.	.
.	8qqgg/J	.	.
.	4dd/)	4b\	.
*	*v	*v	*
=20!|:	=20!|:	=20!|:
!LO:TUP:a:problem:klamra łukowa	!	!
12C\L	8.ee\L	.
12E\	.	.
12A\J	.	.
.	16cc\Jk	.
*Xtuplet	*	*
12D\L	8.b/L	.
12F\	.	.
12B\J	.	.
.	16a/Jk	.
=21	=21	=21
!LO:TUP:a:problem:klamra łukowa	!	!
12E\L	4g#X/	.
12d#X\	.	.
12e\J	.	.
!LO:TUP:a:problem:klamra łukowa	!	!
12F#X\L	4a/	.
12d#\	.	.
12e\J	.	.
!LO:TUP:a:problem:klamra łukowa	!	!
12G#X\L	4b/	.
12d#\	.	.
12e\J	.	.
!LO:TUP:a:problem:klamra łukowa	!	!
12A\L	4cc/	.
12d#\	.	.
12e\J	.	.
=22	=22	=22
12E\L	4a/ 4cc	.
12d#X\	.	.
12e\J	.	.
4E\	4g#X/ 4b	.
12C\L	8.ee\L	.
12E\	.	.
12A\J	.	.
.	16cc\K	.
12D\L	8.b\	.
12F\	.	.
12B\J	.	.
.	16a\Jk	.
=23	=23	=23
12E\L	4e/ 4g#X	.
12D#X\	.	.
12E\J	.	.
12C/L	4e/ 4a	.
12BB/	.	.
12C/J	.	.
12Dn/L	4f/ 4b	.
12C#X/	.	.
12D/J	.	.
12E\L	4B/ 4d 4g#X	.
12D#X\	.	.
12E\J	.	.
=	=	=
12A\L	2c/ 2e 2a	.
12E\	.	.
12C\J	.	.
4AA/	.	.
!!LO:PB:g=original
=24:|!	=24:|!	=24:|!
*M2/2	*M2/2	*
*met(c|)	*met(c|)	*
!	!LO:TX:a:i:t=War&colon; 2	!
4r	16e/LL	.
.	16f#X/	.
.	16e/	.
.	16d#X/JJ	.
(4E\ 4dn	16e/LL	.
.	16f#/	.
.	16g#X/	.
.	16e/JJ	.
=25	=25	=25
4A\) 4c	16a/LL	.
.	16e/	.
.	16d#X/	.
.	16e/JJ	.
4AA/	16c/LL	.
.	16A/	.
.	16c/	.
.	16e/JJ	.
4A\	16a/LL	.
.	16e/	.
.	16a/	.
.	16cc/JJ	.
4G#X\ 4B	16b/LL	.
.	16e/	.
.	16ee/	.
.	16e/JJ	.
=26	=26	=26
4A\	16cc\LL	.
.	16b\	.
.	16cc\	.
.	16dd\JJ	.
4AA/	16ee\LL	.
.	16cc\	.
.	16b\	.
.	16a\JJ	.
4C/ 4E	16e/LL	.
.	16a/	.
.	16cc/	.
.	16ee/JJ	.
4BB/ 4D 4E	16e/LL	.
.	16g#X/	.
.	16b/	.
.	16ee/JJ	.
=27	=27	=27
4AA/ 4C 4E	16e/LL	.
.	16a/	.
.	16cc/	.
.	16ee/JJ	.
4D/	16f/LL	.
.	16b/	.
.	16dd/	.
.	16b/JJ	.
4E\	16g#X\LL	.
.	16b\	.
.	16ee\	.
.	16b\JJ	.
4EE/	16ee\LL	.
.	16dd\	.
.	16cc\	.
.	16b\JJ	.
!!LO:LB:g=original
=28	=28	=28
16AA/LL	2a/	.
16EE/	.	.
16CC/	.	.
16EE/JJ	.	.
4AAA/	.	.
4E\ 4G	16g/LL	.
.	16cc/	.
.	16b/	.
.	16cc/JJ	.
4C\ 4E 4G	16g\LL	.
.	16ee\	.
.	16dd#X\	.
.	16ee\JJ	.
=29	=29	=29
4F\ 4G	16g\LL	.
.	16ddn\	.
.	16cc#X\	.
.	16dd\JJ	.
4E\ 4G	16g/LL	.
.	16ccn/	.
.	16b/	.
.	16cc/JJ	.
4D\ 4F 4G	16g/LL	.
.	16b/	.
.	16a#X/	.
.	16b/JJ	.
4C\ 4E 4G	16g/LL	.
.	16cc/	.
.	16b/	.
.	16cc/JJ	.
=30	=30	=30
*^	*	*
4G\	4BB\ 4D	16g\LL	.
.	.	16ff\	.
.	.	16ee\	.
.	.	16ff\JJ	.
4G\	4C\ 4E	16g\LL	.
.	.	16ee\	.
.	.	16dd#X\	.
.	.	16ee\JJ	.
4F\	4FF\	16a\LL	.
.	.	16b\	.
.	.	16cc\	.
.	.	16a\JJ	.
4G/	4D\ 4F	16b\LL	.
.	.	16cc\	.
.	.	16ddn\	.
.	.	16b\JJ	.
=31	=31	=31	=31
4G/	4E\	16g/LL	.
.	.	16cc/	.
.	.	16b/	.
.	.	16cc/JJ	.
4G/	4C\ 4E	16g\LL	.
.	.	16gg\	.
.	.	16ee\	.
.	.	16cc\JJ	.
4G/	4D\ 4F	16b\LL	.
.	.	16g\	.
.	.	16b\	.
.	.	16gg\JJ	.
!LO:SIC:v:t=custos GG,G	!	!	!
4G/	4C\ 4E	16cc\LL	.
.	.	16g\	.
.	.	16cc\	.
!	!	!LO:SIC:v:t=custos cc,ee	!
.	.	16gg\JJ	.
*v	*v	*	*
!!LO:LB:g=original
=	=	=
(2GG;</ 2G	(4cc'\ 4ee	.
.	16qqee\LL 16qqgg	.
.	16qqdd#X\) 16qqff	.
.	(16qqee\JJ 16qqgg	.
.	16qqdd#\LL 16qqff	.
.	16qqee\ 16qqgg	.
.	16qqee\ 16qqaa	.
.	16qqee\JJ) 16qqgg	.
.	4b\ 4dd#	.
=32!|:	=32!|:	=32!|:
4C\) 4E 4A	16ee\LL	.
.	16cc\	.
.	16b\	.
.	16a\JJ	.
4D\ 4F 4B	16ff\LL	.
.	16dd\	.
.	16b\	.
.	16a\JJ	.
=33	=33	=33
4EE/ 4E	16g#X/LL	.
.	16e/	.
.	16ee/	.
.	16e/JJ	.
4FF#X/ 4F#X	16a/LL	.
.	16e/	.
.	16ee/	.
.	16e/JJ	.
4GG#X/ 4G#X	16b/LL	.
.	16e/	.
.	16ee/	.
.	16e/JJ	.
4AA/ 4A	16cc/LL	.
.	16e/	.
.	16ee/	.
.	16e/JJ	.
=34	=34	=34
*^	*	*
*	*^	*	*
16B/LL	2E\	4ryy	(16dd/LL	.
16A/	.	.	16cc/	.
16G#X/	.	.	16b/	.
16A/JJ	.	.	16cc/JJ)	.
4G#/	.	4E\	16b/LL	.
.	.	.	16ee/	.
.	.	.	16dd#X/	.
.	.	.	16ee/JJ	.
4C/	4CC/	2ryy	16e/LL	.
.	.	.	16a/	.
.	.	.	16ee/	.
.	.	.	16a/JJ	.
4D/	4DD/	.	16f/LL	.
.	.	.	16b/	.
.	.	.	16ff/	.
.	.	.	16b/JJ	.
*v	*v	*v	*	*
=35	=35	=35
4EE/ 4E	16g#X/LL	.
.	16ee/	.
.	16b\	.
.	16g#/JJ	.
4CC/ 4C	16a/LL	.
.	16ee/	.
.	16cc/	.
!	!LO:TX:t=P:problem:łamanie systemu	!
.	16a/JJ	.
!!LO:LB:g=original
4DD/ 4D	16b/LL	.
.	16ff/	.
.	16dd/	.
.	16b/JJ	.
4EE/ 4E	16g#X/LL	.
.	16ee/	.
.	16b/	.
.	16g#/JJ	.
=	=	=
16r	2c/ 2e 2a	.
16A\LL	.	.
16E\	.	.
16C\JJ	.	.
4AA/	.	.
!!LO:PB:g=original
=36:|!	=36:|!	=36:|!
*M2/2	*M2/2	*
*met(c|)	*met(c|)	*
*	*tuplet	*
!	!LO:TX:a:i:t=War&colon; 3	!
!	!LO:TUP:a:problem:klamra łukowa	!
8e\	12r	.
.	12f#X/L	.
8r	.	.
.	12d#X/J	.
!	!LO:TUP:a:problem:klamra łukowa	!
8dn\ 8e	12r	.
.	(12f#/L	.
8r	.	.
.	12g#X/J	.
=37	=37	=37
*	*Xtuplet	*
8c\ 8e	12a/L	.
.	12e/)	.
8r	.	.
.	12c/J	.
!LO:TUP:a:problem:klamra łukowa	!	!
12A\L	4r	.
12c\	.	.
12e\J	.	.
4A\ 4c	12a/L	.
.	12e/	.
.	12cc/J	.
!	!LO:TX:t=P:problem:mixed beam	!
4G#X\ 4B	12b/L	.
.	12e/	.
.	12ee\J	.
=38	=38	=38
4A\	(12cc\L	.
.	12ee\	.
.	12cc\J	.
4AA/	12a/L	.
.	12e/	.
.	12c/J)	.
*	*tuplet	*
!	!LO:TUP:a:problem:klamra łukowa	!
8e\	12r	.
.	12f#X/L	.
8r	.	.
.	12d#X/J	.
!	!LO:TUP:a:problem:klamra łukowa	!
8d\ 8e	12r	.
.	12f#/L	.
8r	.	.
.	12g#X/J	.
=39	=39	=39
*	*Xtuplet	*
4c\ 4e	12a\L	.
.	12ee\	.
.	12cc\J	.
4d\ 4f	12b\L	.
.	12ff\	.
.	12dd\J	.
4e\	12g#X/L	.
.	12b/	.
.	12ee/J	.
4E\ 4d	12e/L	.
.	12f#X/	.
.	12g#X/J	.
=40	=40	=40
8A\ 8c	12a/L	.
.	12e/	.
8r	.	.
.	12c/J	.
4AAA/ 4AA	4r	.
4C\ 4E 4G	12e/L	.
.	12g/	.
.	12cc/J	.
4E\ 4G	12g/L	.
.	12cc/	.
.	12ee/J	.
!!LO:LB:g=original
=41	=41	=41
4F\ 4G	12dd\L	.
.	12b\	.
.	12dd\J	.
4E\ 4G	12cc\L	.
.	12ee\	.
.	12cc\J	.
4D\ 4F 4G	12b\L	.
.	12g\	.
.	12b\J	.
4C\ 4E 4G	12cc\L	.
.	12g\	.
.	12ee\J	.
=42	=42	=42
4BB\ 4D 4G	12dd\L 12ff	.
.	12g\	.
.	12dd\J 12ff	.
4C\ 4E 4G	12cc\L 12ee	.
.	12g\	.
.	12cc\J 12ee	.
4FF\ 4F	12a\L	.
.	12b\	.
.	12cc\J	.
4D\ 4F 4G	12b\L	.
.	12cc\	.
.	12dd\J	.
=43	=43	=43
4E\ 4G	12g/L	.
.	12a/	.
.	12b/J	.
4C\ 4E 4G	12cc\L	.
.	12dd\	.
.	12ee\J	.
4BB\ 4D 4G	12ff\L	.
.	12dd\	.
.	12gg\J	.
4C\ 4E 4G	12ee\L	.
.	12cc\	.
.	12gg\J	.
=	=	=
*^	*	*
4GG;\	(>12GG/L	4cc;\ 4ee	.
.	12C/	.	.
.	12E/J	.	.
4GG/	12G/L	4b\ 4dd	.
.	12E/	.	.
.	12BB/J)	.	.
*v	*v	*	*
=44!|:	=44!|:	=44!|:
8.e\L	12a\L	.
.	12cc\	.
.	12ee\J	.
16c\Jk	.	.
8.B\L	12b\L	.
.	12dd\	.
!	!LO:SIC:v:t=custos e	!
.	12ee\J	.
!LO:SIC:v:t=custos G#	!	!
16A\Jk	.	.
!!LO:LB:g=original
=45	=45	=45
4G#X\	12e\L	.
.	12b\	.
.	12ee\J	.
4A\	12e\L	.
.	12cc\	.
.	12ee\J	.
4B\	12e\L	.
.	12g#X\	.
.	12ee\J	.
4c\	12e\L	.
.	12a\	.
.	12ee\J	.
=46	=46	=46
*^	*	*
(4c/	2E\	12e\L	.
.	.	12a\	.
.	.	12ee\J	.
4B/)	.	12e\L	.
.	.	12g#X\	.
.	.	12ee\J	.
8.e\L	2ryy	12a\L	.
.	.	12cc\	.
.	.	12ee\J	.
16c\Jk	.	.	.
8.B\L	.	12b\L	.
.	.	12dd\	.
.	.	12ee\J	.
16A\Jk	.	.	.
=47	=47	=47	=47
4G#X/	2ryy	12e\L	.
.	.	12dd\	.
.	.	12ee\J	.
4A/	.	12e\L	.
.	.	12cc\	.
.	.	12ee\J	.
4..B/	2E\	12g#X\L	.
.	.	12dd\	.
.	.	12ee\J	.
.	.	12g#\L	.
.	.	12dd#X\	.
.	.	12ee\J	.
8qd/	.	.	.
16c/	.	.	.
=	=	=	=
2c/	2A\	12a\L	.
.	.	12gg#X\	.
.	.	12aa\J	.
.	.	4a/	.
*v	*v	*	*
!!LO:LB:g=original
=48:|!	=48:|!	=48:|!
*M2/2	*M2/2	*
*met(c|)	*met(c|)	*
*^	*	*
!	!	!LO:TX:i:a:t=War&colon; 4	!
4r	2E\	8e\L 8ee	ff
.	.	8f#X\ 8ff#X	.
(<4d/	.	8g#X\ 8gg#X	.
.	.	8e\J 8ee	.
=49	=49	=49	=49
*	*	*^	*
4c/)	2E\	8a'\L 8aa	2ryy	.
.	.	8b'\ 8bb	.	.
4A/	.	8cc'\ 8ccc	.	.
.	.	8a'\J 8aa	.	.
8EE/L 8E	2ryy	(4eee/	8ee\L 8gg#X	.
8FF#X/ 8F#X	.	.	8aa'\	.
8GG#X/ 8G#X	.	4ddd/)	8bb\	.
8EE/J 8E	.	.	8gg#X\J	.
*v	*v	*	*	*
*	*v	*v	*
=50	=50	=50
8AA/L 8A	4ee\ 4aa 4ccc	.
8BB/ 8B	.	.
8C/ 8c	4ee\ 4aa 4ccc	.
8AA/J 8A	.	.
4EE/ 4E	8e\L 8ee	.
.	8f#X\ 8ff#X	.
4DD/ 4D	8g#X\ 8gg#X	.
.	8e\J 8ee	.
=51	=51	=51
8CC/L 8C	4a\ 4aa	.
8EE/ 8E	.	.
.	8qcc/ 8qccc	.
8DD/ 8D	4b\ 4bb	.
8FF/J 8F	.	.
8EE/L 8E	4..g#X\ 4..gg#X	.
8DD/ 8D	.	.
8CC/ 8C	.	.
8BBB/J 8BB	.	.
.	16a\ [16aa	.
=52	=52	=52
8AAA/L 8AA	2a\ 2aa]	.
8CC/ 8C	.	.
8EE/ 8E	.	.
8AA/J 8A	.	.
8EE/L 8E	4cc\ 4ccc	.
8GG/ 8G	.	.
8EE/ 8E	4cc\ 4ccc	.
8CC/J 8C	.	.
=53	=53	=53
8FF/L 8F	8dd\L 8ddd	.
8GG/ 8G	8b\J 8bb	.
8EE/ 8E	4cc\ 4ccc	.
8GG/J 8G	.	.
8DD/L 8D	4g\ 4gg	.
8FF/ 8F	.	.
8EE/ 8E	4cc\ 4ccc	.
8GG/J 8G	.	.
=54	=54	=54
8BBB/L 8BB	4ff\ 4fff	.
8GG/ 8G	.	.
8CC/ 8C	4ee\ 4eee	.
8GG/J 8G	.	.
8FF/L 8F	4a\ 4aa	.
8EE/ 8E	.	.
8DD/ 8D	4b\ 4bb	.
8GG/J 8G	.	.
!!LO:PB:g=original
=55	=55	=55
8EE/L 8E	4g\ 4gg	.
8DD/ 8D	.	.
8EE/ 8E	4cc\ 4ccc	.
8CC/J 8C	.	.
8FF/L 8F	4b\ 4bb	.
8GG/ 8G	.	.
8EE/ 8E	4cc\ 4ccc	.
8CC/J 8C	.	.
=56	=56	=56
*^	*	*
4c;/	2G\	(16ee;\LL	.
.	.	16eee\	.
.	.	16dd\	.
.	.	16ddd\JJ	.
4ryy	.	16ee\LL	.
.	.	16eee\	.
.	.	16ff\	.
.	.	16fff\JJ)	.
4B/	4ryy	4dd\ 4ddd	.
*v	*v	*	*
=57!|:	=57!|:	=57!|:
2r	8ee\L 8eee	.
.	8cc\ 8ccc	.
.	8b\ 8bb	.
.	8a\J 8aa	.
=58	=58	=58
8E\L 8e	4g#X\ 4gg#X	.
8C\ 8c	.	.
8BB\ 8B	4a\ 4aa	.
8AA\J 8A	.	.
8GG#X\L 8G#X	4b\ 4bb	.
8EE\ 8E	.	.
8AA\ 8A	4cc\ 4ccc	.
8DD#X\J 8D#X	.	.
=59	=59	=59
8EE/L 8E	(4ee\ 4aa 4ccc	.
8DD#X/ 8D#X	.	.
8E/	4ee\) 4gg#X 4bb	.
8EE/J	.	.
2r	8ee\L 8eee	.
.	8cc\ 8ccc	.
.	8b\ 8bb	.
.	8a\J 8aa	.
=60	=60	=60
8E\L 8e	4g#X\ 4gg#X	.
8C\ 8c	.	.
8BB\ 8B	4a\ 4aa	.
8AA\J 8A	.	.
8D\L 8d	4.b\ 4.bb	.
8F\ 8f	.	.
8E\ 8e	.	.
.	8qdd/ 8qddd	.
8EE\J 8E	8cc\ 8ccc	.
=	=	=
4AA\ 4A	2cc\ 2ee 2aa	.
4AAA/ 4AA	.	.
!!LO:LB:g=original
=61:|!	=61:|!	=61:|!
*M2/2	*M2/2	*
*met(c|)	*met(c|)	*
!	!LO:TX:a:i:t=War&colon; 5	!
2r	16ee\LL	.
.	16dd#X\	.
.	16ee\	.
.	16ff#X\JJ	.
.	16gg#X\LL	.
.	16ff#\	.
.	16gg#\	.
.	16ee\JJ	.
=62	=62	=62
.	8qgg#X/	.
16A\LL	8aa\	.
16e\	.	.
*	*clefF4	*
16c\	8E/L	.
16e\JJ	.	.
*rep	*	*
16A\LL	8C/	.
16e\	.	.
16c\	8AA/J	.
16e\JJ	.	.
*Xrep	*	*
.	8qC/	.
16G#X\LL	16BB/LL	.
16e\	16AA/	.
16d#X\	16BB/	.
16e\JJ	16C/JJ	.
*rep	*	*
16G#\LL	16D#X/LL	.
16e\	16E/	.
16d#\	16BB/	.
16e\JJ	16Dn/JJ	.
*Xrep	*	*
=63	=63	=63
16A\LL	8C/L	.
16e\	.	.
16c\	8E/	.
16e\JJ	.	.
*rep	*	*
16A\LL	8C/	.
16e\	.	.
16c\	8AA/J	.
16e\JJ	.	.
*Xrep	*clefG2	*
4AA\ 4A	16r	.
.	16cc\LL	.
.	16b\	.
.	16a\JJ	.
4BB\ 4B	16g#X/LL	.
.	16e/	.
.	16f#X/	.
.	16g#/JJ	.
=64	=64	=64
(4C\ 4E 4A	16a\LL	.
.	16cc\	.
.	16ee\	.
.	16aa\JJ	.
4D\) 4F 4B	16ff\LL	.
.	16dd\	.
.	16cc\	.
.	16b\JJ	.
4E\ 4A 4c	16ee\LL	.
.	16dd#X\	.
.	16ee\	.
.	16cc\JJ	.
4E\ 4B 4d	16ddn\LL	.
.	16b\	.
.	16g\	.
.	16b\JJ	.
=	=	=
2A\ 2c	16a\LL	.
.	16cc\	.
.	16ee\	.
.	16gg#X\JJ	.
.	16aa\LL	.
.	16gg#\	.
.	16aa\	.
.	16bb\JJ	.
!!LO:LB:g=original
*clefG2	*	*
=65	=65	=65
*^	*	*
8e/L	2d\	16ccc\LL	.
.	.	16bb\	.
8e/ 8g	.	16ccc\	.
.	.	16ddd\JJ	.
8e/ 8g	.	16eee\LL	.
.	.	16ccc\	.
8e/J 8g	.	16ggn\	.
.	.	16ee\JJ	.
*v	*v	*	*
=66	=66	=66
8B/L 8d 8f	16ddd\LL	.
.	16gg\	.
8g/J	16ff#X\	.
.	16gg\JJ	.
8c/L 8e	16ccc\LL	.
.	16gg\	.
8g/J	16ff#\	.
.	16gg\JJ	.
8d/L 8f	16bb\LL	.
.	16gg\	.
8g/J	16ff#\	.
.	16gg\JJ	.
8c/L 8e	16ccc\LL	.
.	16gg\	.
8g/J	16ff#\	.
.	16gg\JJ	.
*clefF4	*	*
=67	=67	=67
*^	*	*
4G\ 4BB\ 4D	4ryy	16fff\LL	.
.	.	16ddd\	.
.	.	16bb\	.
.	.	16gg\JJ	.
4G\ 4C\ 4E	4ryy	16eee\LL	.
.	.	16ccc\	.
.	.	16gg\	.
.	.	16ee\JJ	.
4F\ 4FF\	4ryy	16a\LL	.
.	.	16cc\	.
.	.	16ff\	.
.	.	16aa\JJ	.
4D\ 4F	4G/	16b\LL	.
.	.	16dd\	.
.	.	16ff\	.
.	.	16bb\JJ	.
=68	=68	=68	=68
8E/L	4C\	16cc\LL 16ccc	.
.	.	16gg\	.
8G/J	.	16ff#X\	.
.	.	16gg\JJ	.
8E/L	4C\	16ee\LL 16eee	.
.	.	16gg\	.
8G/J	.	16ff#\	.
.	.	16gg\JJ	.
8E/L	4D\	16ffn\LL 16bb	.
.	.	16aa#X\	.
8G/J	.	16bb\	.
.	.	16gg\JJ	.
4E/	4C\	16ee\LL 16ccc	.
.	.	16bb\	.
.	.	16ccc\	.
.	.	16gg\JJ	.
*v	*v	*	*
=	=	=
32r	4gg;<\ 4ccc 4eee	.
32G;\LLL	.	.
32F#X\	.	.
32G\JJJ	.	.
32F#\LLL	.	.
32D\	.	.
32E\	.	.
32C\JJJ	.	.
4GG;/	4gg;<\ 4bb 4ddd	.
=69!|:	=69!|:	=69!|:
*clefG2	*	*
16a\LL	(16ddd#X\LL	.
16ee\	16eee\	.
16a\	16dddn\	.
16ee\JJ	16ccc\JJ	.
*rep	*	*
16a\LL	16bb\LL	.
16ee\	16aa\	.
16a\	16gg#X\	.
16ee\JJ	16aa\JJ)	.
*Xrep	*	*
!!LO:LB:g=original
=70	=70	=70
8b\L 8dd	16gg#X\LL	.
.	16ee\	.
8b\ 8dd	16dd#X\	.
.	16ee\JJ	.
8a\ 8cc	16aa\LL	.
.	16ee\	.
8a\J 8cc	16dd#\	.
.	16ee\JJ	.
*clefF4	*	*
16r	8ee\L 8bb 8ddd	.
16E\LL	.	.
16F#X\	8ee\ 8bb 8ddd	.
16G#X\JJ	.	.
16A\LL	8ee\ 8aa 8ccc	.
16B\	.	.
16c\	8ee\J 8aa 8ccc	.
16d\JJ	.	.
=71	=71	=71
16e\LL	8ee\L 8gg#X 8bb	.
16d#X\	.	.
16e\	8gg#\J 8bb#X 8eee	.
16f\JJ	.	.
16e\LL	8gg#\ 8bb# 8eee	.
16dn\	.	.
16c\	8r	.
16B\JJ	.	.
16A\LL	16dd#X\LL	.
16e\	16ee\	.
16c\	16ddn\	.
16e\JJ	16cc\JJ	.
16A\LL	16b/LL	.
16e\	16a/	.
16c\	16g#X/	.
16e\JJ	16a/JJ	.
=72	=72	=72
8B\L 8d	16g#X/LL	.
.	16e/	.
8B\ 8d	16dn/	.
.	16e/JJ	.
8A\ 8c	16a/LL	.
.	16e/	.
8A\J 8c	16d/	.
.	16e/JJ	.
8DD/ 8D	16d/ 16f 16b	.
.	16ff'\LL 16fff	.
16EE'/LL 16E	16ee'\ 16eee	.
16FF#X'/JJ 16F#X	16dd'\JJ 16ddd	.
16GG#X'/LL 16G#X	16cc'\LL 16ccc	.
16AA'/ 16A	16b'\ 16bb	.
16BB'/ 16B	16a'\ 16aa	.
16E'/JJ 16e	16g#'\JJ 16gg#X	.
=	=	=
(>16AA/LL 16A	2a\ 2cc 2ee 2aa	.
16c/	.	.
16B/	.	.
16c/JJ)	.	.
4AAA/ 4AA	.	.
!!LO:PB:g=original
=73:|!	=73:|!	=73:|!
*M2/2	*M2/2	*
*met(c|)	*met(c|)	*
!	!LO:TX:a:i:t=War&colon; 6	!
4r	16c/LL	.
.	16a/	.
.	16e/	.
.	16cc/JJ	.
8r	16d/LL	.
.	16b/	.
8EE/ 8E	16B/	.
.	16g#X/JJ	.
=74	=74	=74
8AAA/ 8AA	16c/LL 16a	>
.	16e/	.
*clefG2	*	*
8cc\L	16d#X/	.
.	16e/JJ	]
8qdd#X/	.	.
8ee\	16c/LL 16a	>
.	16e/	.
8aa\J	16d#/	.
.	16e/JJ	]
*clefF4	*	*
8AAA/ 8AA	16e/LL 16cc	>
.	16a/	.
*clefG2	*	*
8aa\ 8ccc	16g#X/	.
.	16a/JJ	]
8gg#X\L 8bb	16e/LL 16ee	>
.	16b/	.
8gg#\J 8bb	16ee/	.
.	16dd/JJ	]
*clefF4	*	*
=75	=75	=75
8AA\ 8A	16c/LL 16cc	>
.	16a/	.
*clefG2	*	*
8cc\ 8ee 8aa 8ccc	16e/	.
.	16a/JJ	]
*clefF4	*	*
8AA\ 8A	16c/LL 16cc	>
.	16a/	.
*clefG2	*	*
8aa\ 8ccc	16e/	.
.	16a/JJ	]
*clefF4	*	*
16G#X\LL	16e/LL	.
16F\	16d#X/	.
16E\	16e/	.
16D\JJ	16fn/JJ	.
16C/LL	16e/LL	.
16BB/	16dn/	.
16AA/	16c/	.
16GG/JJ	16B/JJ	.
=76	=76	=76
4AAA/ 4AA	16A/LL 16a	>
.	16e/	.
.	16c/	.
.	16e/JJ	]
*clefG2	*	*
4dd\ 4ff	16d/LL 16b	>
.	16f/	.
.	16d/	.
.	16f/JJ	]
*clefF4	*	*
4EE/ 4E	16B/LL 16g#X	>
.	16e/	.
.	16d#X/	.
.	16e/JJ	]
*clefG2	*	*
4gg#X\ 4bb 4eee	16B/LL 16dn 16g#	>
.	16e/	.
.	16d#X/	.
.	16e/JJ	]
!!LO:LB:g=original
*clefF4	*	*
=77	=77	=77
16r	2c/ 2e 2a	.
16A\LL	.	.
16E\	.	.
16C\JJ	.	.
4AA/	.	.
8CC/ 8C	16c/LL 16cc	>
.	16g/	.
*clefG2	*	*
8qff#X/	.	.
8gg\L	16e/	.
.	16g/JJ	]
8qbb/	.	.
8ccc\	16c/LL 16cc	>
.	16g/	.
8qddd#X/	.	.
8eee\J	16e/	.
.	16g/JJ	]
=78	=78	=78
8gg\L 8bb 8ddd	16f/LL 16ff	>
.	16g/	.
8gg\J 8bb 8ddd	16f#X/	.
.	16g/JJ	]
8ff\L 8ccc 8eee	16e/LL 16ee	>
.	16g/	.
8ff\J 8ccc 8eee	16f#/	.
.	16g/JJ	]
8ff\L 8ddd 8fff	16d/LL 16dd	>
.	16g/	.
8ff\J 8ddd 8fff	16f#/	.
.	16g/JJ	]
8ff\L 8ccc 8eee	16e/LL 16cc	>
.	16g/	.
8ff\J 8ccc 8eee	16f#/	.
.	16g/JJ	]
=79	=79	=79
*clefF4	*	*
!	!LO:TX:t=P:problem:mixed beam	!
8.GG/L 8.G	16dd\LL 16ffn	.
.	(16c#X/ 16e	.
.	16d/) 16f	.
16BBB/Jk 16BB	[16g/JJ 16dd 16ff	.
!	!LO:TX:t=P:problem:mixed beam	!
8.CC/L 8.C	16g/LL] 16ccn 16ee	.
.	(16B/ 16d#X	.
.	16c#/) 16e	.
16EE/Jk 16E	[16cc\JJ 16gg#X	.
8.FF/L 8.F	16cc\LL] 16aa	.
.	16g#X\ 16b	.
.	16a\ 16cc	.
16FF/Jk 16F	(16cc\JJ 16aa	.
8.DD/L 8.D	16ff\LL) 16bb	.
.	(16ff\ 16gg#	.
.	16ff\) 16bb	.
16GG/Jk 16G	(16ff\JJ 16ddd	.
=80	=80	=80
!	!LO:TX:t=P:problem:mixed beam	!
8.C\L 8.c	16ee\LL) 16ccc	.
.	(16d#X/ 16f	.
.	16e/) 16g	.
16E\Jk 16e	(16gg\JJ 16ccc	.
!	!LO:TX:t=P:problem:mixed beam	!
8.C\L 8.c	16gg\LL) 16eee	.
.	(16d#X/ 16f#X	.
.	16e/) 16g	.
16E\Jk 16e	(16gg\JJ 16ccc	.
8.GG/L 8.G	16dd\LL) 16ff 16bb	.
.	16gg\	.
.	16ee\ 16ccc	.
16C/Jk 16c	16gg\JJ	.
8.GG/L 8.G	16dd\LL 16ff 16bb	.
.	16gg\	.
.	16ee\ 16ccc	.
16C/Jk 16c	16gg\JJ	.
!!LO:LB:g=original
=	=	=
4GG;/ 4G	16r	.
.	(16ccc\LL 16eee	.
.	16bb\ 16ddd#X	.
.	16ccc\JJ) 16eee	.
4GGG/ 4GG	4bb;<\ 4dddn	.
=81!|:	=81!|:	=81!|:
*^	*	*
!	!	!LO:TX:a:t=P:problem:przekreślony obiegnik	!
8C/L	2AA\	8eesS\L	.
8C/ 8E	.	16ff\L	.
.	.	16ee\JJ	.
8C/ 8E	.	16dd\LL	.
.	.	16cc\	.
8C/J 8E	.	16b\	.
.	.	16a\JJ	.
*v	*v	*	*
=82	=82	=82
8.EE/L 8.E	16G#X/LL 16g#X	>
.	16e/	.
.	16d#X/	.
16GG#X/Jk 16G#X	16e/JJ	]
8.FF#X/L 8.F#X	16A/LL 16a	>
.	16e/	.
.	16d#/	.
16AA/Jk 16A	16e/JJ	]
8.GG#/L 8.G#	16B/LL 16b	>
.	16e/	.
.	16d#/	.
16BB/Jk 16B	16e/JJ	]
8.AA/L 8.A	16c/LL 16cc	>
.	16e/	.
.	16d#/	.
16C/Jk 16c	16e/JJ	]
=83	=83	=83
*^	*	*
16B/LL	2E\	(16dd\LL	.
16A/	.	16cc\	.
16G#X/	.	16b\	.
16A/JJ	.	16cc\JJ	.
4G#/	.	4b\)	.
!	!	!LO:TX:a:t=P:problem:przekreślony obiegnik	!
8c/L	2A\	8eeesS\L	.
8c/J 8e	.	(16fff\L	.
.	.	16eee\JJ	.
8c/L 8e	.	16ddd\LL	.
.	.	16ccc\	.
8c/J 8e	.	16bb\	.
.	.	16aa\JJ)	.
*v	*v	*	*
=84	=84	=84
4EE/ 4E	16g#X\LL	.
.	16b\	.
.	16ee\	.
!	!LO:TX:t=P:problem:łamanie systemu	!
.	16gg\JJ	.
!!LO:LB:g=original
4CC/ 4C	16a\LL	.
.	16cc\	.
.	16ee\	.
.	16aa\JJ	.
4DD/ 4D	16b\LL	.
.	16dd\	.
.	16ff\	.
.	16bb\JJ	.
4EE/ 4E	16b\LL	.
.	16dd\	.
.	16ee\	.
.	16gg#X\JJ	.
=	=	=
2AAA/ 2AA	2cc\ 2ee 2aa	.
!!LO:PB:g=original
=85:|!	=85:|!	=85:|!
*M2/2	*M2/2	*
*met(c|)	*met(c|)	*
!LO:TX:t=P:problem:mixed beam	!LO:TX:i:a:t=War&colon; 7	!
.	8qqd#X/	.
16EE/LL	4.e/	.
16E\	.	.
16D#X\	.	.
16E\JJ	.	.
16Dn/LL	.	.
16E/	.	.
!	!LO:TX:a:t=P:problem:przekreślony obiegnik	!
16BB/	8esS/	.
16E/JJ	.	.
=86	=86	=86
.	8qqg#X/	.
16C/LL	4a/	.
16D/	.	.
16E/	.	.
16D/JJ	.	.
16C/LL	4a/	.
16AA/	.	.
16C/	.	.
16E/JJ	.	.
!LO:TX:t=P:problem:mixed beam	!	!
16AA/LL	4cc\	.
16A\	.	.
16c\	.	.
16A\JJ	.	.
16G#X\LL	4b\ 4ee	.
16F#X\	.	.
16G#\	.	.
16E\JJ	.	.
=87	=87	=87
!LO:TX:t=P:problem:mixed beam	!	!
16A\LL	(8dd\L	.
16AA/	.	.
16C/	8cc\J	.
16E/JJ	.	.
16A\LL	8b\L	.
16E\	.	.
16C\	8a\J	.
16AA\JJ	.	.
!LO:TX:t=P:problem:mixed beam	!	!
16EE/LL	4.e\) 4.ee	.
16E\	.	.
16G#X\	.	.
16E\JJ	.	.
16d\LL	.	.
16B\	.	.
16G#\	8e\ 8ee	.
16E\JJ	.	.
=88	=88	=88
16C\LL	4.a\ 4.aa	.
16E\	.	.
16A\	.	.
16c\JJ	.	.
16D\LL	.	.
16F\	.	.
.	8qcc/ 8qccc	.
16B\	8b\ 8bb	.
16d\JJ	.	.
16E\LL	4a\ 4cc 4ee 4aa	.
16A\	.	.
16c\	.	.
16e\JJ	.	.
16E\LL	4b\ 4dd 4ee 4gg#X	.
16G#X\	.	.
16B\	.	.
16e\JJ	.	.
!!LO:LB:g=original
=89	=89	=89
16A/LL	2cc\ 2ee 2aa	.
16E/	.	.
16C/	.	.
16E/JJ	.	.
16AA/LL	.	.
16C/	.	.
16E/	.	.
16A/JJ	.	.
16CC/LL	4cc\ 4ccc	.
16C/	.	.
16E/	.	.
16C/JJ	.	.
16G/LL	4cc\ 4ccc	.
16C/	.	.
16E/	.	.
16C/JJ	.	.
=90	=90	=90
16F\LL	4dd\ 4ddd	.
16G\	.	.
16A\	.	.
16G\JJ	.	.
16E\LL	4cc\ 4ccc	.
16G\	.	.
16E\	.	.
16C\JJ	.	.
16D\LL	4.g\ 4.gg	.
16F\	.	.
16G\	.	.
16F\JJ	.	.
16E\LL	.	.
16G\	.	.
16E\	8cc\ 8ccc	.
16C\JJ	.	.
=91	=91	=91
16BB/LL	4ff\ 4fff	.
16G/	.	.
16D/	.	.
16BB/JJ	.	.
16C/LL	4ee\ 4eee	.
16G/	.	.
16E/	.	.
16C/JJ	.	.
16F\LL	4a\ 4aa	.
16E\	.	.
16F\	.	.
16D\JJ	.	.
16G\LL	4b\ 4bb	.
16F\	.	.
16E\	.	.
16D\JJ	.	.
=92	=92	=92
16C\LL	4g\ 4gg	.
16E\	.	.
16G\	.	.
16c\JJ	.	.
16e\LL	4cc\ 4ccc	.
16c\	.	.
16G\	.	.
16E\JJ	.	.
16D\LL	4ff\ 4gg 4bb	.
16F\	.	.
16G\	.	.
16F\JJ	.	.
16E\LL	4cc\ 4gg 4ccc	.
16G\	.	.
16E\	.	.
16C\JJ	.	.
!!LO:LB:g=original
=	=	=
16r	4gg;<\ 4ccc 4eee	.
16GG/LL	.	.
16FF#X/	.	.
16FF#/JJ	.	.
4GGG;/	4gg;<\ 4bb 4ddd	.
=93!|:	=93!|:	=93!|:
.	8qddd#X/	.
16AAA/ 16AA	(8eee\L	.
*clefG2	*	*
(16a/LL	.	.
16ee/	8ccc\J	.
16a/JJ	.	.
16dd/LL	8bb\L	.
16a/)	.	.
16cc/	8aa\J)	.
16a/JJ	.	.
=94	=94	=94
16b/LL	16gg#X'\LL	.
16e/	(16ee\	.
16g#X/	16dd#X\	.
16e/JJ	16ee\JJ)	.
16cc/LL	16aa'\LL	.
16e/	(16ee\	.
16a/	16ff#X\	.
16e/JJ	16ee\JJ)	.
16g#X/LL	16bb'\LL	.
16e/	(16ee\	.
16b/	16dd#X\	.
16e/JJ	16ee\JJ)	.
16a/LL	16ccc'\LL	.
16e/	(16ee\	.
16cc/	16ff#X\	.
16e/JJ	16ee\JJ)	.
=95	=95	=95
4ee\	(16bb\LL 16ddd	.
.	16aa\ 16ccc	.
.	16gg#X\ 16bb	.
.	16aa\JJ) 16ccc	.
4e/	4gg#X\ 4bb	.
*clefF4	*	*
.	4qdd#X/	.
16AAA/ 16AA	(8ee\L	.
(16A\LL	.	.
16e\	8cc\J	.
16A\JJ)	.	.
16d\LL	8b\L	.
16A\	.	.
16c\	8a\J)	.
16A\JJ	.	.
=96	=96	=96
!LO:TX:t=P:problem:mixed beam	!	!
(16EE/LL	4b\ 4dd 4ee 4gg#X	.
16E\	.	.
16G#X\	.	.
16B\JJ)	.	.
!LO:TX:t=P:problem:mixed beam	!	!
(16AA/LL	4a\ 4ee 4aa	.
16A\	.	.
16c\	.	.
16e\JJ)	.	.
!LO:TX:t=P:problem:mixed beam	!	!
16D/LL	4dd\ 4ff 4bb	.
(>16d>\	.	.
16f>\	.	.
16b>\JJ)	.	.
!LO:TX:t=P:problem:mixed beam	!	!
(>16e>\LL	4b/ 4dd 4ee 4gg#X	.
16d#X>\	.	.
16e>)	.	.
16F/JJ	.	.
!!LO:LB:g=original
=	=	=
16r	4cc\ 4ee 4aa	.
16A\LL	.	.
16E\	.	.
16C\JJ	.	.
4AA/	4ryy	.
!!LO:PB:g=original
=97:|!	=97:|!	=97:|!
*M2/2	*M2/2	*
*met(c|)	*met(c|)	*
!	!LO:TX:a:i:t=War&colon; 8	!
4E/	(16ff\LL	p
.	16ee\	.
.	16dd#X\	.
.	16ee\JJ)	.
4D/ 4E	(16ff\LL	.
.	16ee\	.
.	16dd#\	.
.	16ee\JJ)	.
=98	=98	=98
*^	*	*
4A/ 4C/	4ryy	(16ff\LL	.
.	.	16ee\	.
.	.	16dd#X\	.
.	.	16ee\JJ)	.
*	*	*rep	*
4A/ 4C/	4ryy	(16ff\LL	.
.	.	16ee\	.
.	.	16dd#\	.
.	.	16ee\JJ)	.
*	*	*Xrep	*
*	*	*rep	*
4c/	4A\	(16ff\LL	.
.	.	16ee\	.
.	.	16dd#\	.
.	.	16ee\JJ)	.
*	*	*Xrep	*
*	*	*rep	*
4e/	4G#X\	(16ff\LL	.
.	.	16ee\	.
.	.	16dd#\	.
.	.	16ee\JJ)	.
*	*	*Xrep	*
=99	=99	=99	=99
4c/	4A\	(16ff\LL	.
.	.	16ee\	.
.	.	16dd#X\	.
.	.	16ee\JJ)	.
*	*	*rep	*
4c/	4A\	(16ff\LL	.
.	.	16ee\	.
.	.	16dd#\	.
.	.	16ee\JJ)	.
*	*	*Xrep	*
*	*	*rep	*
4E/	4ryy	(16ff\LL	.
.	.	16ee\	.
.	.	16dd#\	.
.	.	16ee\JJ)	.
*	*	*Xrep	*
*	*	*rep	*
4E/	4D\	(16ff\LL	.
.	.	16ee\	.
.	.	16dd#\	.
.	.	16ee\JJ)	.
*	*	*Xrep	*
=100	=100	=100	=100
4A\ 4C\	4ryy	(16ff\LL	.
.	.	16ee\	.
.	.	16dd#X\	.
.	.	16ee\JJ)	.
*	*	*rep	*
4B\ 4D\	4ryy	(16ff\LL	.
.	.	16ee\	.
.	.	16dd#\	.
.	.	16ee\JJ)	.
*	*	*Xrep	*
*	*	*rep	*
4.G#X/	2E\	(16ff\LL	.
.	.	16ee\	.
.	.	16dd#\	.
.	.	16ee\JJ)	.
*	*	*Xrep	*
.	.	(16ff#X\LL	.
.	.	16ee\	.
8B/	.	16ff#\	.
.	.	16gg#X\JJ)	.
*v	*v	*	*
=101	=101	=101
2AA\ 2C 2E 2A	(16aa\LL	.
.	16ee\	.
.	16cc\	.
.	16ee\JJ)	.
.	4a/	.
4E\ 4c	(16aa\LL	.
.	16ggn\	.
.	16ff#X\	.
.	16gg\JJ)	.
4E\ 4c	(16aa\LL	.
.	16gg\	.
.	16ff#\	.
.	16gg\JJ)	.
!!LO:LB:g=original
=102	=102	=102
4G\ 4d	(16aa\LL	.
.	16gg\	.
.	16ff#X\	.
.	16gg\JJ)	.
*	*rep	*
4E\ 4c	(16aa\LL	.
.	16gg\	.
.	16ff#\	.
.	16gg\JJ)	.
*	*Xrep	*
*	*rep	*
4G\	(16aa\LL	.
.	16gg\	.
.	16ff#\	.
.	16gg\JJ)	.
*	*Xrep	*
*	*rep	*
4E\ 4c	(16aa\LL	.
.	16gg\	.
.	16ff#\	.
.	16gg\JJ)	.
*	*Xrep	*
=103	=103	=103
4G\ 4B 4f	(16aa\LL	.
.	16gg\	.
.	16ff#X\	.
.	16gg\JJ)	.
*	*rep	*
4c\ 4e	(16aa\LL	.
.	16gg\	.
.	16ff#\	.
.	16gg\JJ)	.
*	*Xrep	*
*	*rep	*
4F\ 4A	(16aa\LL	.
.	16gg\	.
.	16ff#\	.
.	16gg\JJ)	.
*	*Xrep	*
*	*rep	*
4D\ 4B	(16aa\LL	.
.	16gg\	.
.	16ff#\	.
.	16gg\JJ)	.
*	*Xrep	*
=104	=104	=104
4E\ 4G	(16aa\LL	.
.	16gg\	.
.	16ff#X\	.
.	16gg\JJ)	.
*	*rep	*
4E\ 4c	(16aa\LL	.
.	16gg\	.
.	16ff#\	.
.	16gg\JJ)	.
*	*Xrep	*
*	*rep	*
4D\ 4B	(16aa\LL	.
.	16gg\	.
.	16ff#\	.
.	16gg\JJ)	.
*	*Xrep	*
*	*rep	*
4C\ 4E 4c	(16aa\LL	.
.	16gg\	.
.	16ff#\	.
.	16gg\JJ)	.
*	*Xrep	*
=	=	=
*^	*	*
4c\ 4e	2G\	(16ff#X\LL	.
.	.	16gg\	.
.	.	16aa\	.
.	.	16gg\JJ)	.
4B;\ 4d	.	4g;/	.
*v	*v	*	*
=105!|:	=105!|:	=105!|:
(8e\L	(16ff\LL	.
.	16ee\	.
8c\	16dd#X\	.
.	16ee\JJ)	.
8B\	(16ff\LL	.
.	16ee\	.
8A\J)	16dd#\	.
.	16ee\JJ)	.
=106	=106	=106
4E\ 4G#X	(16ff\LL	.
.	16ee\	.
.	16dd#X\	.
.	16ee\JJ)	.
*	*rep	*
4F#X\ 4A	(16ff\LL	.
.	16ee\	.
.	16dd#\	.
.	16ee\JJ)	.
*	*Xrep	*
*	*rep	*
4G#\ 4B	(16ff\LL	.
.	16ee\	.
.	16dd#\	.
.	16ee\JJ)	.
*	*Xrep	*
*	*rep	*
4A\ 4c	(16ff\LL	.
.	16ee\	.
.	16dd#\	.
.	16ee\JJ)	.
*	*Xrep	*
=107	=107	=107
*^	*	*
4A/ 4c	2E\	(16ff\LL	.
.	.	16ee\	.
.	.	16dd#X\	.
.	.	16ee\JJ)	.
*	*	*rep	*
4G#X/ 4B	.	(16ff\LL	.
.	.	16ee\	.
.	.	16dd#\	.
.	.	16ee\JJ)	.
*	*	*Xrep	*
*	*	*rep	*
(8e\L	2ryy	(16ff\LL	.
.	.	16ee\	.
8c\	.	16dd#\	.
.	.	16ee\JJ)	.
*	*	*Xrep	*
*	*	*rep	*
8B\	.	(16ff\LL	.
.	.	16ee\	.
8A\J)	.	16dd#\	.
.	.	16ee\JJ)	.
*	*	*Xrep	*
!!LO:LB:g=original
=108	=108	=108	=108
4G#X\ 4E\	4ryy	(16ff\LL	.
.	.	16ee\	.
.	.	16dd#X\	.
.	.	16ee\JJ)	.
*	*	*rep	*
4A\ 4C\	4ryy	(16ff\LL	.
.	.	16ee\	.
.	.	16dd#\	.
.	.	16ee\JJ)	.
*	*	*Xrep	*
*	*	*rep	*
4B\ 4D\	4ryy	(16ff\LL	.
.	.	16ee\	.
.	.	16dd#\	.
.	.	16ee\JJ)	.
*	*	*Xrep	*
8B/L	4E\ 4G#X	(16ff#X\LL	.
.	.	16ee\	.
8d/J	.	16ff#\	.
.	.	16gg#X\JJ)	.
=	=	=	=
2c/	2A\	16aa\LL	.
.	.	16ee\	.
.	.	16cc\	.
.	.	16ee\JJ	.
.	.	4a/	.
*v	*v	*	*
!!LO:LB:g=original
=109:|!	=109:|!	=109:|!
*M2/2	*M2/2	*
*met(c|)	*met(c|)	*
!	!LO:TX:a:i:t=War&colon; 9	!
16r	2e/ 2g#X 2b 2ee	ff
(32EE/LLL	.	.
32E/JJJ	.	.
32DD#X/LLL	.	.
32D#X/	.	.
32EE/	.	.
32E/JJJ	.	.
32DD#/LLL	.	.
32D#/	.	.
32EE/	.	.
32E/JJJ	.	.
32FF#X/LLL	.	.
32F#X/	.	.
32GG#X/	.	.
32G#X/JJJ)	.	.
=110	=110	=110
4AA/ 4A	(32a\LLL	.
.	32aa\	.
.	32g\	.
.	32gg\JJJ	.
.	32f\LLL	.
.	32ff\	.
.	32e\	.
.	32ee\JJJ	.
4AAA/ 4AA	32d/LLL	.
.	32dd/	.
.	32c/	.
.	32cc/JJJ)	.
.	32B/LLL	.
.	32b/	.
.	32A/	.
.	32a/JJJ	.
32AAA/LLL	4e/ 4a 4cc	.
32AA/	.	.
(32BBB/	.	.
32BB/JJJ	.	.
32CC/LLL	.	.
32C/	.	.
32AAA/	.	.
32AA/JJJ	.	.
32EE/LLL	4e/ 4g#X 4b 4ee	.
32E/	.	.
32FF#X/	.	.
32F#X/JJJ	.	.
32GG#X/LLL	.	.
32G#X/	.	.
32EE/)	.	.
32E/JJJ	.	.
=111	=111	=111
(32AA/LLL	4e/ 4a 4cc	.
32A/	.	.
32GG/	.	.
32G/JJJ	.	.
32FF/LLL	.	.
32F/	.	.
32EE/	.	.
32E/JJJ	.	.
!	!LO:TX:t=P:problem:łamanie systemu	!
32DD/LLL	4e/ 4a 4cc	.
32D/	.	.
32CC/	.	.
32C/JJJ	.	.
32BBB/LLL	.	.
32BB/	.	.
32AAA/	.	.
32AA/JJJ)	.	.
!!LO:LB:g=original
16r	(2e\ 2g#X 2b 2ee	.
(32EE/LLL	.	.
32E/JJJ	.	.
32DD#X/LLL	.	.
32D#X/	.	.
32EE/	.	.
32E/JJJ	.	.
32DD#/LLL	.	.
32D#/	.	.
32EE/	.	.
32E/JJJ	.	.
32FF/LLL	.	.
32F/	.	.
32GG#X/	.	.
32G#X/JJJ)	.	.
=112	=112	=112
4AA\ 4A	32a\LLL)	.
.	32aa\	.
.	32g#X\	.
.	32gg#X\JJJ	.
.	32a\LLL	.
.	32aa\	.
.	32e\	.
.	32ee\JJJ	.
4DD/ 4D	32f\LLL	.
.	32ff\	.
.	32e\	.
.	32ee\JJJ	.
.	32f\LLL	.
.	32ff\	.
.	32d\	.
.	32dd\JJJ	.
4E\	32B/LLL	.
.	32b/	.
.	32A/	.
.	32a/JJJ	.
.	32B/LLL	.
.	32b/	.
.	32c/	.
.	32cc/JJJ	.
4EE/	32B/LLL	.
.	32b/	.
.	32c/	.
.	32cc/JJJ	.
.	32d/LLL	.
.	32dd/	.
.	32e/	.
.	32ee/JJJ	.
=113	=113	=113
32r	2c/ 2e 2a	.
32A\LLL	.	.
32G#X\	.	.
32A\JJJ	.	.
32E\LLL	.	.
32A\	.	.
32C\	.	.
32E\JJJ	.	.
4AA/	.	.
!LO:TX:t=P:problem:mixed beam	!	!
32C/LLL	4e/ 4g 4cc	.
32c\	.	.
32BB/	.	.
32B\JJJ	.	.
!LO:TX:t=P:problem:mixed beam	!	!
32AA/LLL	.	.
32A\	.	.
32GG/	.	.
32G#\JJJ	.	.
!LO:TX:t=P:problem:mixed beam	!	!
32FF/LLL	4e/ 4g 4cc	.
32F\	.	.
32EE/	.	.
32E\JJJ	.	.
!LO:TX:t=P:problem:mixed beam	!	!
32DD/LLL	.	.
32D\	.	.
32CC/	.	.
32C\JJJ	.	.
=114	=114	=114
4FF/ 4F	32G/LLL	.
.	32g/	.
.	32B/	.
.	32b/JJJ	.
.	32d/LLL	.
.	32dd/	.
.	32B/	.
.	32b/JJJ	.
4EE/ 4E	32G/LLL	.
.	32g/	.
.	32c/	.
.	32cc/JJJ	.
.	32e/LLL	.
.	32ee/	.
.	32c/	.
.	32cc/JJJ	.
4BBB/ 4BB	32G/LLL	.
.	32g/	.
.	32d/	.
.	32dd/JJJ	.
.	32f/LLL	.
.	32ff/	.
.	32d/	.
.	32dd/JJJ	.
4CC/ 4C	32G/LLL	.
.	32g/	.
.	32c/	.
.	32cc/JJJ	.
!	!LO:TX:t=P:problem:mixed beam	!
.	32e/LLL	.
.	32ee\	.
.	32c/	.
.	32cc\JJJ	.
!!LO:PB:g=original
=115	=115	=115
32GG\LLL	4g\ 4dd 4ff	.
32G\	.	.
32BB\	.	.
32B\JJJ	.	.
32D\LLL	.	.
32d\	.	.
32BB\	.	.
32B\JJJ	.	.
32GG\LLL	4g\ 4cc 4ee	.
32G\	.	.
32C\	.	.
32c\JJJ	.	.
32E\LLL	.	.
32e\	.	.
32C\	.	.
32c\JJJ	.	.
4F\ 4f	32a\LLL	.
.	32aa\	.
.	32b\	.
.	32bb\JJJ	.
.	32cc\LLL	.
.	32ccc\	.
.	32a\	.
.	32aa\JJJ	.
4D\ 4d	32b\LLL	.
.	32bb\	.
.	32cc\	.
.	32ccc\JJJ	.
.	32dd\LLL	.
.	32ddd\	.
.	32b\	.
.	32bb\JJJ	.
=116	=116	=116
4E\ 4e	32g\LLL	.
.	32gg\	.
.	32cc\	.
.	32ccc\	.
.	32g\	.
.	32gg\	.
.	32e\	.
.	32ee\JJJ	.
4EE/ 4E	32c/LLL	.
.	32cc/	.
.	32g/	.
.	32gg/JJJ	.
!	!LO:TX:t=P:problem:mixed beam	!
.	32e/LLL	.
.	32ee\	.
.	32c/	.
.	32cc\JJJ	.
32DD/LLL	4B/ 4b	.
32D/	.	.
32GG/	.	.
32G/JJJ	.	.
32FF/LLL	.	.
32F/	.	.
32DD/	.	.
32D/JJJ	.	.
32EE/LLL	4c/ 4cc	.
32E/	.	.
32GG/	.	.
32G/JJJ	.	.
32EE/LLL	.	.
32E/	.	.
32CC/	.	.
32C/JJJ	.	.
=	=	=
32r	4cc;\ 4ee	.
32GGG/LLL	.	.
32AAA/	.	.
32BBB/JJJ	.	.
32CC/LLL	.	.
32DD/	.	.
32EE/	.	.
32FF#X/JJJ	.	.
4GG/	4b;\ 4dd	.
=117!|:	=117!|:	=117!|:
2r	32ee\LLL	.
.	32eee\	.
.	32dd\	.
.	32ddd\JJJ	.
.	32ff\LLL	.
.	32fff\	.
.	32ee\	.
.	32eee\JJJ	.
.	32dd\LLL	.
.	32ddd\	.
.	32cc\	.
.	32ccc\JJJ	.
.	32b\LLL	.
.	32bb\	.
.	32a\	.
.	32aa\JJJ	.
!!LO:LB:g=original
=118	=118	=118
32E\LLL	4g#X\ 4gg#X	.
32e\	.	.
32D\	.	.
32d\JJJ	.	.
32F\LLL	.	.
32f\	.	.
32E\	.	.
32e\JJJ	.	.
32D\LLL	4a\ 4aa	.
32G\ 32d	.	.
32C\	.	.
32c\JJJ	.	.
32BB\LLL	.	.
32B\	.	.
32AA\	.	.
32A\JJJ	.	.
32GG#X/LLL	4b\ 4bb	.
32G#X/	.	.
32EE/	.	.
32E/JJJ	.	.
32FF#X/LLL	.	.
32F#X/	.	.
32GG#/	.	.
32G#/JJJ	.	.
4AA/ 4A	32cc\LLL	.
.	32ccc\	.
.	32dd\	.
.	32ddd\JJJ	.
.	32ee\LLL	.
.	32eee\	.
.	32cc\	.
.	32ccc\JJJ	.
=119	=119	=119
32EE/LLL	4cc\ 4ccc	.
32E/	.	.
32FF#X/	.	.
32F#X/JJJ	.	.
32GG#X/LLL	.	.
32G#X/	.	.
32AA/	.	.
32A/JJJ	.	.
32BB\LLL	4b\ 4bb	.
32B\	.	.
32C#X\	.	.
32c#X\JJJ	.	.
32D#X\LLL	.	.
32d#X\	.	.
32E\	.	.
32e\JJJ	.	.
2r	32ee\LLL	.
.	32eee\	.
.	32dd\	.
.	32ddd\JJJ	.
.	32ff\LLL	.
.	32fff\	.
.	32ee\	.
.	32eee\JJJ	.
.	32dd\LLL	.
.	32ddd\	.
.	32cc\	.
.	32ccc\JJJ	.
.	32b\LLL	.
.	32bb\	.
.	32a\	.
.	32aa\JJJ	.
=120	=120	=120
32E\LLL	4g#X\ 4gg#X	.
32e\	.	.
32D\	.	.
32d\JJJ	.	.
32F\LLL	.	.
32f\	.	.
32E\	.	.
32e\JJJ	.	.
32D\LLL	4a\ 4aa	.
32d\	.	.
32C\	.	.
32c\JJJ	.	.
32BB\LLL	.	.
32B\	.	.
32AA\	.	.
32A\JJJ	.	.
32D\LLL	4.b\ 4.bb	.
32d\	.	.
32C#X\	.	.
32c#y\JJJ	.	.
32D\LLL	.	.
32d\	.	.
32BB\	.	.
32B\JJJ	.	.
32E\LLL	.	.
32e\	.	.
32D#X\	.	.
32d#y\JJJ	.	.
32E\LLL	8cc\ 8ccc	.
32e\	.	.
32E\	.	.
32e\JJJ	.	.
!!LO:LB:g=original
=	=	=
32r	4a\ 4cc 4ee 4aa	.
32A\LLL	.	.
32G#X\	.	.
32A\JJJ	.	.
32E\LLL	.	.
32A\	.	.
32C\	.	.
32E\JJJ	.	.
4AA/	4r	.
=121:|!	=121:|!	=121:|!
32EE/LLL	4b\ 4dd 4ee 4gg#X	.
32E/	.	.
32FF#X/	.	.
32F#y/JJJ	.	.
32GG#X/LLL	.	.
32G#y/	.	.
32EE/	.	.
32E/JJJ	.	.
32AA/LLL	4cc\ 4ee 4aa	.
32A/	.	.
32BB/	.	.
32B/JJJ	.	.
32C/LLL	.	.
32c/	.	.
32AA/	.	.
32A/JJJ	.	.
=122	=122	=122
4DD/ 4D	32r	.
.	32fff\LLL	.
.	32ddd\	.
.	32aa\JJJ	.
.	32ff\LLL	.
.	32ddd\	.
.	32aa\	.
.	32ff\JJJ	.
4r	32dd\LLL	.
.	32aa\	.
.	32ff\	.
.	32dd\JJJ	.
.	32a\LLL	.
.	32ff\	.
.	32dd\	.
.	32a\JJJ	.
2r	32f\LLL	.
.	32dd\	.
.	32a\	.
.	32f\JJJ	.
.	32d/LLL	.
.	32a/	.
.	32f/	.
.	32d/JJJ	.
.	32A</LLL	.
.	32f</	.
.	32d</	.
.	32A</JJJ	.
.	8F<;/	.
4DD#X\ 4D#X	8r	.
.	32r	.
.	(<32F#X</LLL	.
.	32A</	.
.	32c</JJJ	.
4ryy	32d#X/LLL	.
.	32f/	.
.	32a/	.
.	32cc/JJJ)	.
.	32dd#X\LLL	.
.	32ff\	.
.	64aa\L	.
.	64bb\	.
.	64aa\	.
.	64gg#X\	.
32ryy	64aa\	.
.	64ccc\JJJJ	.
!!LO:LB:g=original
=123	=123	=123
4EE;/ 4E	4ee;<\ 4aa 4ccc 4eee	.
4EE;/ 4E	4b;\ 4dd 4ee 4gg#X	.
!	!LO:TX:b:i:t=dolce	!
2r	(8.ee\L	.
.	16cc\Jk	.
.	8.b\L	.
.	16a\Jk)	.
=124	=124	=124
12E\L	4g#X/	p
(12d#X\	.	.
12e\J)	.	.
12F#X\L	4a/	.
(12d#\	.	.
12e\J)	.	.
12G#X\L	4b/	.
(12d#\	.	.
12e\J)	.	.
12A\L	4cc/	.
(12d#\	.	.
12e\J)	.	.
=125	=125	=125
12E\L	(4a/ 4cc	.
(12d#X\	.	.
12e\J)	.	.
4E\	4g#X/) 4b	.
12C\L	8.ee\L	.
12E\	.	.
12A\J	.	.
.	16cc\Jk	.
12D\L	8.b\L	.
12F\	.	.
12B\J	.	.
.	16a\Jk	.
=126	=126	=126
12E\L	4e/ 4g#X	.
12D#X\	.	.
12E\J	.	.
12C/L	4e/ 4a	.
12BB/	.	.
12C/J	.	.
12Dn/L	4f/ 4b	.
12C#X/	.	.
12D/J	.	.
12E/L	4B/ 4d#X 4g#	.
12D#X/	.	.
12E/J	.	.
=127	=127	=127
16AAA/ 16AA	16c/ 16e 16a	.
*	*clefF4	*
16EE/LL	16E'\LL	<
16FF#X/	16F#X'\	.
16GG#X/JJ	16G#X'\JJ	.
16AA/LL	16A'\LL	.
16BB/	16B'\	.
16C/	16c'\	.
16D/JJ	16d'\JJ	[
4E/	4e\	.
*	*clefG2	*
4EE/ 4E	4B/ 4d 4e 4g#X	.
!!LO:LB:g=original
=128	=128	=128
16AAA/ 16AA	16c/LL 16e 16a	ff
16E\LL	16e/	.
16F#X\	16f#X/	.
16G#X\JJ	16g#X/JJ	.
16A\LL	16a/LL	.
16B\	16b/	.
16c\	16cc/	.
16d\JJ	16dd/JJ	.
4e\	4ee\	.
4EE/ 4E	4b\ 4dd 4ee 4gg#X	.
=129	=129	=129
4AAA/ 4AA	4cc\ 4ee 4aa	.
4r	4r	.
4AAA/ 4AA	4ee\ 4aa 4ccc	.
4r	4r	.
=130	=130	=130
2AAA/ 2AA	2c/ 2e 2a	.
2r	2r	.
==	==	==
*-	*-	*-
!!!RDF**kern: > = above
!!!RDF**kern: < = below
!!!system-decoration: [(s1,s2)]
!!!ENC: Filip Voros
!!!END: 2022-07-26
!!!ENC: Urszula Świątek
!!!END: 2022-08-23
